assets/Beaver/Flat/beaver_flat.svg

<svg width="32" height="32" viewBox="0 0 32 32" fill="none" xmlns="http://www.w3.org/2000/svg">
<path d="M4.61 13H3.39C3.18 13 3 12.82 3 12.61V10.64H5V12.61C5 12.82 4.82 13 4.61 13Z" fill="#D3D3D3"/>
<path d="M16.64 7H20.5C25.75 7 30 11.25 30 16.5C30 21.75 25.75 26 20.5 26H10V18.97C7.75003 18.72 6.00003 16.82 6.00003 14.5V14H8.31003C9.00003 14 9.59003 13.59 9.85003 13L5.5 11L2.39648 6.04339C2.54151 5.90802 2.71977 5.80563 2.92003 5.75L10.06 3.8C11.05 3.53 12.07 3.61 12.97 3.99C13.2 3.41 13.77 3 14.43 3C15.3 3 16 3.7 16 4.57C16 5.15 15.68 5.66 15.2 5.93L15.61 6.49C15.86 6.81 16.24 7 16.64 7Z" fill="#A56953"/>
<path d="M10 12.31C10 13.24 9.24 14 8.31 14H6L5 15L6.2549 16C6.87106 17.7498 8.53626 19 10.5 19C12.99 19 15 16.99 15 14.5V13.5C15 12.12 13.88 11 12.5 11H11.31C10.59 11 10 11.59 10 12.31Z" fill="#7D4533"/>
<path d="M9.85 13C9.95 12.79 10 12.56 10 12.31V11.41C10 10.08 8.92 9.00005 7.59 9.00005H6.26C5.5 9.00005 4.81 8.54005 4.52 7.83005L4 6.55005L2 6.95005V7.46005C2 10.52 4.48 13 7.53 13H9.85Z" fill="#F3AD61"/>
<path d="M2.44 6H3.33C3.78 6 4.1 6.44 3.97 6.86L3.75 7.55C3.52 8.28 2.92 8.8 2.2 8.95C2.07 8.47 2 7.98 2 7.46V6.95C2 6.58 2.17 6.23 2.44 6Z" fill="#1C1C1C"/>
<path d="M7.5 6C7.22 6 7 6.22 7 6.5V7.25C7 7.53 7.22 7.75 7.5 7.75C7.78 7.75 8 7.53 8 7.25V6.5C8 6.22 7.78 6 7.5 6Z" fill="#1C1C1C"/>
<path d="M6 14H5C4.45 14 4 14.45 4 15C4 15.55 4.45 16 5 16H6.2549C6.08978 15.5311 6 15.0263 6 14.5V14Z" fill="#1C1C1C"/>
<path d="M27 23.43C25.11 24.63 22.77 24.89 20.66 24.12L10.06 20.28C10.05 20.28 10.04 20.27 10.03 20.27L9.99997 20.26C9.48997 20.08 8.93997 19.98 8.35997 20C5.97997 20.08 4.03997 22.03 3.99997 24.42C3.95997 26.94 5.98997 29 8.49997 29H21.43C24.51 29 27 26.51 27 23.43Z" fill="#533566"/>
<path d="M14.43 5.31995C14.8442 5.31995 15.18 4.98416 15.18 4.56995C15.18 4.15573 14.8442 3.81995 14.43 3.81995C14.0158 3.81995 13.68 4.15573 13.68 4.56995C13.68 4.98416 14.0158 5.31995 14.43 5.31995Z" fill="#6D4534"/>
</svg>

<svg xmlns="http://www.w3.org/2000/svg" width="32" height="32" fill="none"><path fill="#D3D3D3" d="M4.61 13H3.39c-.21 0-.39-.18-.39-.39v-1.97h2v1.97c0 .21-.18.39-.39.39Z"/><path fill="#A56953" d="M16.64 7h3.86c5.25 0 9.5 4.25 9.5 9.5S25.75 26 20.5 26H10v-7.03c-2.25-.25-4-2.15-4-4.47V14h2.31c.69 0 1.28-.41 1.54-1L5.5 11 2.396 6.043c.146-.135.324-.237.524-.293l7.14-1.95c.99-.27 2.01-.19 2.91.19.23-.58.8-.99 1.46-.99a1.566 1.566 0 0 1 .77 2.93l.41.56c.25.32.63.51 1.03.51Z"/><path fill="#7D4533" d="M10 12.31c0 .93-.76 1.69-1.69 1.69H6l-1 1 1.255 1c.616 1.75 2.281 3 4.245 3 2.49 0 4.5-2.01 4.5-4.5v-1a2.5 2.5 0 0 0-2.5-2.5h-1.19c-.72 0-1.31.59-1.31 1.31Z"/><path fill="#F3AD61" d="M9.85 13c.1-.21.15-.44.15-.69v-.9C10 10.08 8.92 9 7.59 9H6.26c-.76 0-1.45-.46-1.74-1.17L4 6.55l-2 .4v.51C2 10.52 4.48 13 7.53 13h2.32Z"/><path fill="#1C1C1C" d="M2.44 6h.89c.45 0 .77.44.64.86l-.22.69c-.23.73-.83 1.25-1.55 1.4-.13-.48-.2-.97-.2-1.49v-.51c0-.37.17-.72.44-.95ZM7.5 6c-.28 0-.5.22-.5.5v.75c0 .28.22.5.5.5s.5-.22.5-.5V6.5c0-.28-.22-.5-.5-.5ZM6 14H5c-.55 0-1 .45-1 1s.45 1 1 1h1.255A4.507 4.507 0 0 1 6 14.5V14Z"/><path fill="#533566" d="M27 23.43a7.211 7.211 0 0 1-6.34.69l-10.6-3.84c-.01 0-.02-.01-.03-.01l-.03-.01c-.51-.18-1.06-.28-1.64-.26-2.38.08-4.32 2.03-4.36 4.42A4.505 4.505 0 0 0 8.5 29h12.93c3.08 0 5.57-2.49 5.57-5.57Z"/><path fill="#6D4534" d="M14.43 5.32a.75.75 0 1 0 0-1.5.75.75 0 0 0 0 1.5Z"/></svg>
